resources/svg/sim-o.svg

<svg width="15" height="15" viewBox="0 0 15 15" fill="none" xmlns="http://www.w3.org/2000/svg">
<path d="M4 5.5H7.5V12M4 8.5H6M4 11.5H6M9 5.5H11M9 8.5H11M9 11.5H11M12.5 14.5H2.5C1.94771 14.5 1.5 14.0523 1.5 13.5V1.5C1.5 0.947716 1.94771 0.5 2.5 0.5H9.5L13.5 4.5V13.5C13.5 14.0523 13.0523 14.5 12.5 14.5Z" stroke="black"/>
</svg>

<svg viewBox="0 0 15 15" fill="none" xmlns="http://www.w3.org/2000/svg" fill="currentColor"><path d="M4 5.5h3.5V12M4 8.5h2m-2 3h2m3-6h2m-2 3h2m-2 3h2m1.5 3h-10a1 1 0 01-1-1v-12a1 1 0 011-1h7l4 4v9a1 1 0 01-1 1z" stroke="currentColor"/></svg>
